!!!!SEGMENT: pl-kk--kk-i-6--065_anonim--alleluia-felix-es-sacra.krn
!!!cenid: 16xx:1069
!!!COM: Anonim
!!!COM-rismid: pe30004985
!!!CDT:
!!!CNT:
!!!OTL: Alleluia felix es sacra
!!!PDT:
!!!AGN:
!!!SMS-siglum: PL-Kk
!!!SMS-shelfmark: Kk.I.6
!!!SMS-shelfwork: 065 W
!!!SMS-variant:
!!!SMS-altvar:
!!!NIFC-rismid: 1001136614
!!!URL-scan: http://repozytorium.nifc.pl/skany/pl-kk-nut--i-6
!!!ONB-nifc: UWAGA: T, skan 0206, brak C i B
**kern	**kern	**text	**kern
*part3	*part2	*part2	*part1
*staff3	*staff2	*staff2	*staff1
*Iempty	*Itenor	*	*Ivox
*I"Baſsus	*I"Tenor.	*	*I"Cantus.
*I'B	*I'T	*	*I'S
*clefF4	*clefC3	*	*clefC4
*k[]	*k[]	*	*k[]
*C:	*C:	*	*C:
*M2/2	*M2/2	*	*M2/2
*met(C|)	*met(C|)	*	*met(C|)
=1-	=1-	=1-	=1-
!LO:TX:t=P:problem:źródło wybrakowane, brak partii C i B	!	!	!LO:TX:t=P:problem:źródło wybrakowane, brak partii C i B
1ryy	1G/	Al-	1ryy
=2-	=2-	=2-	=2-
1ryy	1G/	-le-	1ryy
=3-	=3-	=3-	=3-
*	*lig	*	*
1ryy	1A/	.	1ryy
=4-	=4-	=4-	=4-
1ryy	1G/	.	1ryy
*	*Xlig	*	*
=5-	=5-	=5-	=5-
*	*lig	*	*
1ryy	1F/	-lu-	1ryy
=6-	=6-	=6-	=6-
1ryy	1G/	.	1ryy
*	*Xlig	*	*
=7-	=7-	=7-	=7-
1ryy	1A/	.	1ryy
=8-	=8-	=8-	=8-
*	*lig	*	*
1ryy	1c\	.	1ryy
=9-	=9-	=9-	=9-
1ryy	1B/	.	1ryy
*	*Xlig	*	*
=10-	=10-	=10-	=10-
1ryy	1c\	.	1ryy
=11-	=11-	=11-	=11-
*	*lig	*	*
1ryy	1A/	-ia,	1ryy
=12-	=12-	=12-	=12-
1ryy	1G/	.	1ryy
*	*Xlig	*	*
=13!|:-	=13!|:-	=13!|:-	=13!|:-
*	*lig	*	*
1ryy	1A/	.	1ryy
=14-	=14-	=14-	=14-
1ryy	1G/	.	1ryy
*	*Xlig	*	*
=15-	=15-	=15-	=15-
1ryy	1F/	.	1ryy
=16-	=16-	=16-	=16-
1ryy	1G/	.	1ryy
=17-	=17-	=17-	=17-
1ryy	1A/	A.	1ryy
=18-	=18-	=18-	=18-
*	*lig	*	*
1ryy	1c\	.	1ryy
=19-	=19-	=19-	=19-
1ryy	1A/	.	1ryy
*	*Xlig	*	*
=20-	=20-	=20-	=20-
1ryy	1B/	.	1ryy
=21-	=21-	=21-	=21-
1ryy	1A/	.	1ryy
=22-	=22-	=22-	=22-
1ryy	1G/l	.	1ryy
!	!LO:LB:g=original	!	!
=24:|!-	=24:|!-	=24:|!-	=24:|!-
1ryy	1G/	Fe-	1ryy
=25-	=25-	=25-	=25-
*	*lig	*	*
1ryy	1c\	.	1ryy
=26-	=26-	=26-	=26-
1ryy	1B/	.	1ryy
*	*Xlig	*	*
=27-	=27-	=27-	=27-
*	*lig	*	*
1ryy	1B/	-lix	1ryy
=28-	=28-	=28-	=28-
1ryy	1c\	.	1ryy
*	*Xlig	*	*
=29-	=29-	=29-	=29-
*	*lig	*	*
1ryy	1d\	.	1ryy
=30-	=30-	=30-	=30-
1ryy	1c\	.	1ryy
*	*Xlig	*	*
=31-	=31-	=31-	=31-
*	*lig	*	*
1ryy	1A/	.	1ryy
=32-	=32-	=32-	=32-
1ryy	1G/,<	.	1ryy
*	*Xlig	*	*
=33-	=33-	=33-	=33-
1ryy	1G/,<	es	1ryy
=34-	=34-	=34-	=34-
1ryy	1A/	Sa-	1ryy
=35-	=35-	=35-	=35-
1ryy	(<1G/	.	1ryy
=36-	=36-	=36-	=36-
1ryy	1A/)	.	1ryy
=37-	=37-	=37-	=37-
*	*lig	*	*
1ryy	1F/	-cra	1ryy
=38-	=38-	=38-	=38-
1ryy	1A/	.	1ryy
*	*Xlig	*	*
=39-	=39-	=39-	=39-
*	*lig	*	*
1ryy	1c\	.	1ryy
=40-	=40-	=40-	=40-
1ryy	1A/	.	1ryy
*	*Xlig	*	*
=41-	=41-	=41-	=41-
1ryy	1G/	.	1ryy
=42-	=42-	=42-	=42-
*	*lig	*	*
1ryy	1F/	Vir-	1ryy
=43-	=43-	=43-	=43-
1ryy	1G/	.	1ryy
*	*Xlig	*	*
=44-	=44-	=44-	=44-
!	!LO:SIC:v:t=custos G	!	!
1ryy	1G/,<	-go	1ryy
!	!LO:LB:g=original	!	!
=45-	=45-	=45-	=45-
*	*lig	*	*
1ryy	1G/	Ma-	1ryy
=46-	=46-	=46-	=46-
1ryy	1A/	.	1ryy
*	*Xlig	*	*
=47-	=47-	=47-	=47-
1ryy	1G/	.	1ryy
=48-	=48-	=48-	=48-
1ryy	1F/	.	1ryy
=49-	=49-	=49-	=49-
*	*lig	*	*
1ryy	1G/	.	1ryy
=50-	=50-	=50-	=50-
1ryy	1A/	.	1ryy
*	*Xlig	*	*
=51-	=51-	=51-	=51-
1ryy	1c\	.	1ryy
=52-	=52-	=52-	=52-
1ryy	1G/	-ri-	1ryy
=53-	=53-	=53-	=53-
*	*lig	*	*
1ryy	1A/	.	1ryy
=54-	=54-	=54-	=54-
1ryy	1G/	.	1ryy
*	*Xlig	*	*
=55-	=55-	=55-	=55-
1ryy	1G/,<	-a	1ryy
=56-	=56-	=56-	=56-
1ryy	1G/,<	et	1ryy
=57-	=57-	=57-	=57-
*	*lig	*	*
1ryy	1G/	o-	1ryy
=58-	=58-	=58-	=58-
1ryy	1A/	.	1ryy
*	*Xlig	*	*
=59-	=59-	=59-	=59-
1ryy	1G/	-mni	1ryy
=60-	=60-	=60-	=60-
1ryy	1F/,<	.	1ryy
=61-	=61-	=61-	=61-
*	*lig	*	*
1ryy	1A/	lau-	1ryy
=62-	=62-	=62-	=62-
1ryy	1G/	.	1ryy
*	*Xlig	*	*
=63-	=63-	=63-	=63-
*	*lig	*	*
1ryy	1c\	.	1ryy
=64-	=64-	=64-	=64-
1ryy	1A/	.	1ryy
*	*Xlig	*	*
=65-	=65-	=65-	=65-
*	*lig	*	*
1ryy	1B/	.	1ryy
=66-	=66-	=66-	=66-
!	!LO:SIC:v:t=custos A	!	!
1ryy	1c\	.	1ryy
*	*Xlig	*	*
!	!LO:LB:g=original	!	!
=67-	=67-	=67-	=67-
*	*lig	*	*
1ryy	1A/	-de	1ryy
=68-	=68-	=68-	=68-
1ryy	1G/,<	.	1ryy
*	*Xlig	*	*
=69-	=69-	=69-	=69-
*	*lig	*	*
1ryy	1A/	di-	1ryy
=70-	=70-	=70-	=70-
1ryy	1c\	.	1ryy
*	*Xlig	*	*
=71-	=71-	=71-	=71-
1ryy	1A/	.	1ryy
=72-	=72-	=72-	=72-
1ryy	1G/	-gnis	1ryy
=73-	=73-	=73-	=73-
*	*lig	*	*
1ryy	1F/	ſi-	1ryy
=74-	=74-	=74-	=74-
1ryy	1G/	.	1ryy
*	*Xlig	*	*
=75-	=75-	=75-	=75-
1ryy	1G/,<	-na	1ryy
=76-	=76-	=76-	=76-
*	*lig	*	*
1ryy	1G/	qui-	1ryy
=77-	=77-	=77-	=77-
1ryy	1D/	.	1ryy
*	*Xlig	*	*
=78-	=78-	=78-	=78-
1ryy	1F/,<	-a	1ryy
=79-	=79-	=79-	=79-
*	*lig	*	*
1ryy	1F/	ex	1ryy
=80-	=80-	=80-	=80-
1ryy	1G/	.	1ryy
*	*Xlig	*	*
=81-	=81-	=81-	=81-
1ryy	1G/,<	te	1ryy
=82-	=82-	=82-	=82-
*	*lig	*	*
1ryy	1A/	or-	1ryy
=83-	=83-	=83-	=83-
1ryy	1G/	.	1ryy
*	*Xlig	*	*
=84-	=84-	=84-	=84-
*	*lig	*	*
1ryy	1A/	.	1ryy
=85-	=85-	=85-	=85-
1ryy	1F/	.	1ryy
*	*Xlig	*	*
=86-	=86-	=86-	=86-
1ryy	1G/	.	1ryy
=87-	=87-	=87-	=87-
1ryy	1A/	.	1ryy
=88-	=88-	=88-	=88-
!	!LO:SIC:v:t=custos A	!	!
1ryy	0c\	.	1ryy
=89-	=89-	=89-	=89-
1ryy	.	.	1ryy
!	!LO:LB:g=original	!	!
=90-	=90-	=90-	=90-
*	*lig	*	*
1ryy	1A/	.	1ryy
=91-	=91-	=91-	=91-
1ryy	1G/	.	1ryy
*	*Xlig	*	*
=92-	=92-	=92-	=92-
*	*lig	*	*
1ryy	1E/	.	1ryy
=93-	=93-	=93-	=93-
1ryy	1F/	.	1ryy
*	*Xlig	*	*
=94-	=94-	=94-	=94-
1ryy	1G/	.	1ryy
=95-	=95-	=95-	=95-
*	*lig	*	*
1ryy	1D/	-tus	1ryy
=96-	=96-	=96-	=96-
1ryy	1C/,<	.	1ryy
*	*Xlig	*	*
=97-	=97-	=97-	=97-
1ryy	1D/,<	est	1ryy
=98-	=98-	=98-	=98-
1ryy	1G/,<	Sol	1ryy
=99-	=99-	=99-	=99-
*	*lig	*	*
1ryy	1G/	iu-	1ryy
=100-	=100-	=100-	=100-
1ryy	1A/	.	1ryy
*	*Xlig	*	*
=101-	=101-	=101-	=101-
*	*lig	*	*
1ryy	1G/	.	1ryy
=102-	=102-	=102-	=102-
1ryy	1F/	.	1ryy
*	*Xlig	*	*
=103-	=103-	=103-	=103-
*	*lig	*	*
1ryy	1G/	.	1ryy
=104-	=104-	=104-	=104-
1ryy	1A/	.	1ryy
*	*Xlig	*	*
=105-	=105-	=105-	=105-
1ryy	1c\	.	1ryy
=106-	=106-	=106-	=106-
*	*lig	*	*
1ryy	1c\	-ſti-	1ryy
=107-	=107-	=107-	=107-
1ryy	1B/	.	1ryy
*	*Xlig	*	*
=108-	=108-	=108-	=108-
!	!LO:SIC:v:t=custos A	!	!
1ryy	1c\	.	1ryy
!	!LO:LB:g=original	!	!
=109-	=109-	=109-	=109-
*	*lig	*	*
1ryy	1A/	-ti-	1ryy
=110-	=110-	=110-	=110-
1ryy	1G/	.	1ryy
*	*Xlig	*	*
=111-	=111-	=111-	=111-
1ryy	1G/	-a	1ryy
=112-	=112-	=112-	=112-
*	*lig	*	*
1ryy	1A/	Chri-	1ryy
=113-	=113-	=113-	=113-
1ryy	1G/	-ſtus	1ryy
*	*Xlig	*	*
=114-	=114-	=114-	=114-
*	*lig	*	*
1ryy	1F/	De-	1ryy
=115-	=115-	=115-	=115-
1ryy	1G/	-us	1ryy
*	*Xlig	*	*
=116-	=116-	=116-	=116-
1ryy	1G/l	noſter	1ryy
==	==	==	==
*-	*-	*-	*-
!!!system-decoration: (s1,s2,s3)
!!!ENC: Andrzej Gręziak
!!!END: 2021-10-27
!!!RDF**kern: l = terminal long
!!!RDF**kern: > = above
!!!RDF**kern: < = below
!!!EED: Andrzej Borzym
!!!EST: 2021-12-27
